X:32
T:Ballindalloch's Dream
R:Reel
B:The Athole Collection
M:C|
L:1/8
K:A Minor
e|~c2 A>c e^f/g/ af|g2 gB GB/c/ dB|~c2Ac e^f/g/ af|ge^fd e2A:|
|:^g|a2ea cAa^f|g2dg BGdB|1 a2 ea cAa^f|gefd e2A:|2 cedf egfa|
gefd e2A||

